X:1
T:Title
%%score ( 1 2 ) { 3 | 4 }
L:1/8
Q:1/4=112
M:3/4
K:Eb
V:1 treble nm="Grand Piano, Soprano"
V:2 treble 
V:3 bass nm="Choir Pad, Bass"
V:4 bass 
V:1
 E2 [EG]3 [EF] | [EG]2 [DA]3 [DG] | [DA]2 [EB]2 E2 | [DF]2 [EG]4 | [EG]2 [GB]3 [FA] | %5
w: By~Alexander~C.~Hopkins * *|||||
 [EG]2 [Ac]3 [GB] | [EG]2 [EB]2 [DA]2 | [EG]2 [DF]4 | E2 [EG]3 [EF] | [EG]2 [DA]3 [DG] | %10
w: |||||
 [DA]2 [EB]2 [DA]2 | [EG]2 [Ec]4 | [Ad]2 [Ge]3 [EG] | [Ac]2 [GB]3 E | [FA]2 [EG]2 [EG]2 | %15
w: |||||
 [DF]2 E4 | [EB]2 [EB]3 [Ec] | [EB]2 [EG]4 | [GB]2 [GB]3 [Ac] | [GB]2 [Ge]4 | [EG]2 [DF]3 [EG] | %21
w: ||||||
 [E=A]2 [DB]2 [Fd]2 | [Ec]2 B2- [FB-]2 | [EB-]2 [DB]4 | [AB]2 [GB]3 [Ac] | [GB]2 [Ge]4 | %26
w: |||||
 [Ge]2 [Ae]3 [Ad] | [Ac]2 [GB]4 | [GB]2 [Af]3 [Ae] | [Ac]2 [GB]2 [FA]2 | [DF]2[K:bass] E2 B,2 | %31
w: |||||
 C2 B,4- | B,4 z2 |] %33
w: ||
V:2
 x6 | x6 | x6 | x6 | x6 | x6 | x6 | x6 | x6 | x6 | x6 | x6 | x6 | x6 | x6 | x6 | x6 | x6 | x6 | %19
 x6 | x6 | x6 | z2 D2 z2 | x6 | x6 | x6 | x6 | x6 | x6 | x6 | x2[K:bass] x4 | x6 | x6 |] %33
V:3
 G,2 B,3 B, | B,2 B,3 B, | B,2 B,2 B,2 | B,2 B,4 | B,2 E3 B, | B,2 E3 E | B,2 B,2 B,2 | B,2 B,4 | %8
 G,2 B,3 B, | B,2 B,3 B, | B,2 B,2 B,2 | B,2 A,4 | B,2 B,3 B, | E2 E3 G, | C2 B,2[K:bass] B,2 | %15
 A,2 G,4 | G,2 G,3 A, | G,2 B,4 | E2 E3 E | E2 B,4 | B,2 B,3 B, | C2 B,2 B,2 | %22
 =A,2 B,2[K:treble] D2 | C2 B,4 | D2 E3 E | E2 B,4 | B,2 C3 D | E2 E4 | E2 C3 C | %29
 E2[K:bass] B,2 B,2 | A,2 G,2 G,2 | A,2 G,4- | G,4 z2 |] %33
V:4
 E,2 E,3 E, | E,2 F,3 F, | F,2 G,2 G,2 | F,2 E,4 | E,2 E,3 E, | E,2 E,3 E, | E,2 G,2 F,2 | %7
 E,2 B,,4 | E,2 E,3 E, | E,2 F,3 F, | F,2 G,2 F,2 | E,2 z2 z2 | F,2 E,3 E, | E,2 E,3 E, | %14
 A,,2 B,,2 B,,2 | B,,2 E,4 | E,2 E,3 E, | E,2 E,4 | E,2 E,3 E, | E,2 E,4 | E,2 F,3 F, | %21
 F,2 F,2 F,2 | F,2 B,,4- | B,,6 | B,,2 E,3 E, | E,2 E,4 | E,2 A,3 A, | A,2 E,4 | E,2 A,3 A, | %29
 A,2 z2 z2 | B,,2 E,4- | E,6- | E,4 z2 |] %33

